<?xml version="1.0" encoding="UTF-8"?>
<map version="1.10" tiledversion="1.12.2" orientation="orthogonal" renderorder="right-down" width="32" height="72" tilewidth="64" tileheight="64" infinite="0" backgroundcolor="#ffffff" nextlayerid="4" nextobjectid="366">
 <editorsettings>
  <export target="mexico10.json" format="json1"/>
 </editorsettings>
 <tileset firstgid="1" name="spritesheet_mexico_64" tilewidth="64" tileheight="64" tilecount="84" columns="7">
  <image source="../game/tiles/spritesheet_mexico_64.png" width="448" height="768"/>
 </tileset>
 <tileset firstgid="85" name="Objects" tilewidth="64" tileheight="64" tilecount="450" columns="10">
  <image source="../game/tiles/spritesheet_objects_64.png" width="672" height="2880"/>
  <tile id="130">
   <properties>
    <property name="Name" type="int" value="0"/>
   </properties>
  </tile>
 </tileset>
 <tileset firstgid="535" name="Objects" tilewidth="64" tileheight="64" tilecount="450" columns="10">
  <image source="../game/tiles/spritesheet_objects_64.png" width="672" height="2880"/>
 </tileset>
 <layer id="2" name="Background" width="32" height="72">
  <data encoding="csv">
0,0,0,0,0,0,0,0,0,0,0,0,0,0,0,0,0,0,0,0,0,0,0,0,0,0,0,0,0,0,0,0,
0,0,0,0,0,0,0,0,0,0,0,0,0,0,0,0,0,0,0,0,0,0,0,0,0,0,0,0,0,0,0,0,
0,0,0,0,0,0,0,0,0,0,0,0,0,0,0,0,0,0,0,0,0,0,0,0,0,0,0,0,0,0,0,0,
0,0,0,0,0,0,0,0,0,0,0,0,0,0,0,0,0,0,0,0,0,0,53,54,55,0,0,0,0,0,0,0,
0,0,0,0,0,0,0,0,0,0,0,49,0,0,0,0,0,0,26,27,0,0,0,0,0,0,0,0,0,0,0,0,
0,0,0,0,0,0,0,0,0,0,0,56,0,0,0,0,0,32,33,34,0,0,0,0,0,0,0,0,0,0,0,0,
0,0,0,0,0,0,0,0,0,0,0,35,37,38,0,0,0,39,47,0,0,0,0,0,0,0,0,0,0,0,0,0,
0,0,0,0,0,0,0,0,0,0,0,35,0,0,0,0,0,0,0,0,0,0,0,0,0,0,0,0,0,0,0,0,
0,0,0,0,0,0,0,0,0,0,0,35,0,0,0,0,0,0,0,0,0,0,0,0,0,0,0,0,0,0,0,0,
0,0,0,0,0,0,0,0,0,0,0,35,0,0,0,0,0,0,0,0,0,0,0,0,0,0,0,0,0,0,0,0,
0,0,0,0,0,0,0,0,0,0,0,35,0,0,0,0,0,0,0,0,0,0,0,0,0,0,0,0,0,0,0,0,
0,0,0,0,0,0,0,0,0,0,0,35,35,35,35,35,35,35,35,35,35,35,35,35,35,35,0,0,0,0,0,0,
0,0,0,0,0,0,0,0,0,0,0,35,35,35,35,35,35,35,35,35,35,35,35,35,35,35,0,0,0,0,0,0,
0,0,0,0,0,0,0,0,0,0,0,35,35,35,35,35,35,35,35,35,35,35,35,35,35,35,0,0,0,0,0,0,
0,0,0,0,0,0,0,0,0,0,0,35,35,35,35,35,35,78,78,78,78,35,35,35,35,35,0,0,0,0,0,0,
0,0,0,0,0,0,0,0,0,0,0,35,35,35,35,35,35,35,35,35,35,35,35,35,35,35,0,0,0,0,0,0,
0,0,0,0,0,0,0,0,0,0,0,35,35,35,35,35,35,35,35,35,35,35,35,35,35,35,0,0,0,0,0,0,
0,0,0,0,0,0,0,0,0,0,0,35,35,35,35,35,35,35,35,35,35,35,35,35,35,35,0,0,0,0,0,0,
0,0,0,0,0,0,0,0,0,0,0,35,35,35,35,35,35,35,35,35,35,35,35,35,35,35,0,0,0,0,0,0,
0,0,0,0,0,0,0,0,0,0,0,35,35,35,35,35,35,35,35,35,35,35,35,35,35,35,0,0,0,0,0,0,
0,0,0,0,0,0,0,0,0,0,0,35,35,35,35,35,35,35,35,35,35,35,35,35,35,35,0,0,0,0,0,0,
0,0,0,0,0,0,0,0,0,0,0,35,35,35,35,35,35,35,35,35,35,35,35,35,35,35,0,0,0,0,0,0,
0,0,0,0,0,0,0,0,0,0,0,35,35,35,35,35,35,35,35,35,35,35,35,35,35,35,0,0,0,0,0,0,
0,0,0,0,0,0,0,0,0,0,0,35,35,35,35,35,35,35,35,35,35,35,35,35,35,35,0,0,0,0,0,0,
0,0,0,0,0,0,0,0,0,0,0,35,35,35,35,35,35,35,35,35,35,35,35,35,35,35,0,0,0,0,0,0,
0,0,0,0,0,0,0,0,0,0,0,35,35,35,35,35,35,35,35,35,35,35,35,35,35,35,0,0,0,0,0,0,
0,0,0,0,0,0,0,0,0,0,0,35,35,35,35,35,35,35,35,35,35,35,35,35,35,35,0,0,0,0,0,0,
0,0,0,0,0,0,0,0,0,0,0,35,35,35,35,35,35,35,35,35,35,35,35,35,35,35,0,0,0,0,0,0,
0,0,0,0,0,0,0,0,0,0,0,35,35,35,35,35,35,35,35,35,35,35,35,35,35,35,0,0,0,0,0,0,
0,0,0,0,0,0,0,0,0,0,0,35,35,35,35,35,35,35,35,35,35,35,35,35,35,35,0,0,0,0,0,0,
0,0,0,0,0,0,0,0,0,0,0,35,35,35,35,35,35,35,35,35,35,35,35,35,35,35,0,0,0,0,0,0,
0,0,0,0,0,0,0,0,0,0,0,35,35,35,35,35,35,35,35,35,35,35,35,35,35,35,0,0,0,0,0,0,
0,0,0,0,0,0,0,0,0,0,0,35,35,35,35,35,35,35,35,35,35,35,35,35,35,35,0,0,0,0,0,0,
0,0,0,0,0,0,0,0,0,0,0,35,35,35,35,35,35,35,35,35,35,35,35,35,35,35,0,0,0,0,0,0,
0,0,0,0,0,0,0,0,0,0,0,35,35,35,35,35,35,35,35,35,35,35,35,35,35,35,0,0,0,0,0,0,
0,0,0,0,0,0,0,0,0,0,0,35,35,35,35,35,35,35,35,35,35,35,35,35,35,35,0,0,0,0,0,0,
0,0,0,0,0,0,0,0,0,0,0,35,35,35,35,35,35,35,35,35,35,35,35,35,35,35,0,0,0,0,0,0,
0,0,0,0,0,0,0,0,0,0,0,35,35,35,35,35,35,35,35,35,35,35,35,35,35,35,0,0,0,0,0,0,
0,0,0,0,0,0,0,0,0,0,0,35,35,35,35,35,35,35,35,35,35,35,35,35,35,35,0,0,0,0,0,0,
0,0,0,0,0,0,0,0,0,0,0,35,35,35,35,35,35,35,35,35,35,35,35,35,35,35,0,0,0,0,0,0,
0,0,0,0,0,0,0,0,0,0,0,35,35,35,35,35,35,35,35,35,35,35,35,35,35,35,0,0,0,0,0,0,
0,0,0,0,0,0,0,0,0,0,0,35,35,35,35,35,35,35,35,35,35,35,35,35,35,35,0,0,0,0,0,0,
0,0,0,0,0,0,0,0,0,0,0,35,35,35,35,35,35,35,35,35,35,35,35,35,35,35,0,0,0,0,0,0,
0,0,0,0,0,0,0,0,0,0,0,35,35,35,35,35,35,35,35,35,35,35,35,35,35,35,0,0,0,0,0,0,
0,0,0,0,0,0,0,0,0,0,0,35,35,35,35,35,35,35,35,35,35,35,35,35,35,35,0,0,0,0,0,0,
0,0,0,0,0,0,0,0,0,0,0,35,35,35,35,35,35,35,35,35,35,35,35,35,35,35,0,0,0,0,0,0,
0,0,0,0,0,0,0,0,0,0,0,35,35,35,35,35,35,35,35,35,35,35,35,35,35,35,0,0,0,0,0,0,
0,0,0,0,0,0,0,0,0,0,0,35,35,35,35,35,35,35,35,35,35,35,35,35,35,35,0,0,0,0,0,0,
0,0,0,0,0,0,0,0,0,0,0,35,35,35,35,35,35,35,35,35,35,35,35,35,35,35,0,0,0,0,0,0,
0,0,0,0,0,0,0,0,0,0,0,35,35,35,35,35,35,35,35,35,35,35,35,35,35,35,0,0,0,0,0,0,
0,0,0,0,0,0,0,0,0,0,0,35,35,35,35,35,35,35,35,35,35,35,35,35,35,35,0,0,0,0,0,0,
0,0,0,0,0,0,0,0,0,0,0,35,35,35,35,35,35,35,35,35,35,35,35,35,35,35,0,0,0,0,0,0,
0,0,0,0,0,0,0,0,0,0,0,35,35,35,35,35,35,35,35,35,35,35,35,35,35,35,0,0,0,0,0,0,
0,0,0,0,0,0,0,0,0,0,0,35,35,35,35,35,35,35,35,35,35,35,35,35,35,35,0,0,0,0,0,0,
0,0,0,0,0,0,0,0,0,0,0,35,35,35,35,35,35,35,35,35,35,35,35,35,35,35,0,0,0,0,0,0,
0,0,0,0,0,0,0,0,0,0,0,35,35,35,35,35,35,35,35,35,35,35,35,35,35,35,0,0,0,0,0,0,
0,0,0,0,0,0,0,0,0,0,0,35,35,35,35,35,35,35,35,35,35,35,35,35,35,35,0,0,0,0,0,0,
0,0,0,0,0,0,0,0,0,0,0,35,35,35,35,35,35,35,35,35,35,35,35,35,35,35,0,0,0,0,0,0,
0,0,0,0,0,0,0,0,0,0,0,35,35,35,35,35,35,35,35,35,35,35,35,35,35,35,0,0,0,0,0,0,
0,0,0,0,0,0,0,0,0,0,0,35,35,35,35,35,35,35,35,35,35,35,35,35,35,35,0,0,0,0,0,0,
0,0,0,0,0,0,0,0,0,0,0,35,35,35,35,35,35,35,35,35,35,35,35,35,35,35,0,0,0,0,0,0,
0,0,0,0,0,0,0,0,0,0,0,35,35,35,35,35,35,35,35,35,35,35,35,35,35,35,0,0,0,0,0,0,
0,0,0,0,0,0,0,0,0,0,0,35,35,35,35,35,35,35,35,35,35,35,35,35,35,35,0,0,0,0,0,0,
0,0,0,0,0,0,0,0,0,0,0,35,35,35,35,35,35,35,35,35,35,35,35,35,35,35,0,0,0,0,0,0,
0,0,0,0,0,0,0,0,0,0,0,35,35,35,35,35,35,35,35,35,35,35,35,35,35,35,0,0,0,0,0,0,
0,0,0,0,0,0,0,0,0,0,0,35,35,35,35,35,35,35,35,35,35,35,35,35,35,35,0,0,0,0,0,0,
0,0,0,0,0,0,0,0,0,0,0,35,35,35,35,35,35,35,35,35,35,35,35,35,35,35,0,0,0,0,0,0,
0,0,0,0,35,35,35,35,35,35,35,35,35,35,35,35,35,35,35,35,35,35,35,35,35,35,0,0,0,0,0,0,
0,0,0,0,35,35,35,35,35,35,35,35,35,35,35,35,35,35,35,35,35,35,35,35,35,35,0,0,0,0,0,0,
0,0,0,0,0,0,0,0,0,0,0,0,0,0,0,0,0,0,0,0,0,0,0,0,0,0,0,0,0,0,0,0,
0,0,0,0,0,0,0,0,0,0,0,0,0,0,0,0,0,0,0,0,0,0,0,0,0,0,0,0,0,0,0,0,
0,0,0,0,0,0,0,0,0,0,0,0,0,0,0,0,0,0,0,0,0,0,0,0,0,0,0,0,0,0,0,0
</data>
 </layer>
 <layer id="1" name="Map" width="32" height="72">
  <data encoding="csv">
24,24,24,24,24,24,24,24,24,24,24,0,0,0,0,0,0,0,0,0,0,0,0,0,0,0,0,0,0,0,0,0,
24,24,24,24,24,24,24,24,24,24,24,0,0,0,0,0,0,0,0,0,0,0,0,0,0,0,0,0,0,0,0,0,
24,24,24,24,24,24,24,24,24,24,24,0,0,0,0,0,0,0,0,0,0,0,0,0,0,0,0,0,0,0,0,0,
24,24,24,24,24,24,24,24,24,24,24,0,0,0,0,0,0,0,0,0,0,0,53,54,55,0,0,0,0,0,0,0,
24,24,24,24,24,24,24,24,24,24,24,0,0,0,0,0,0,0,0,0,0,0,0,0,0,0,0,0,0,0,0,0,
24,24,24,24,24,24,24,24,24,24,24,0,0,0,0,0,0,0,0,0,0,0,0,0,0,0,0,0,0,0,0,0,
24,24,24,24,24,24,24,24,24,24,24,0,0,0,0,0,0,0,0,0,0,0,0,0,0,0,0,0,0,0,0,0,
24,24,24,24,24,24,24,24,24,24,24,5,19,19,18,18,18,18,18,18,18,44,44,44,44,44,18,18,18,18,18,18,
24,24,24,24,24,24,24,24,24,24,24,5,19,19,19,19,19,19,19,19,19,19,19,19,19,19,19,19,19,19,19,19,
24,24,24,24,24,24,24,24,24,24,24,5,19,19,19,19,19,19,19,19,19,19,19,19,19,19,19,19,19,19,19,19,
24,24,24,24,24,24,24,24,24,24,24,5,19,19,19,19,19,19,19,19,19,19,19,19,19,19,19,19,19,19,19,19,
24,24,24,24,24,24,24,24,24,24,24,5,23,23,23,23,23,23,23,23,23,23,23,23,23,23,19,19,19,19,19,19,
24,24,24,24,24,24,24,24,24,24,24,5,0,0,0,0,0,0,0,0,0,0,0,0,0,0,24,24,24,24,24,24,
24,24,24,24,24,24,24,24,24,24,24,5,0,0,0,0,0,0,0,0,0,0,0,0,0,0,24,24,24,24,24,24,
24,24,24,24,24,24,24,24,24,24,24,5,0,0,0,0,0,0,0,0,0,0,0,0,0,0,24,24,24,24,24,24,
24,24,24,24,24,24,24,24,24,24,24,5,0,0,0,0,0,0,0,0,0,0,0,0,0,0,24,24,24,24,24,24,
24,24,24,24,24,24,24,24,24,24,24,5,24,24,0,0,0,0,0,0,0,0,0,24,24,5,24,24,24,24,24,24,
24,24,24,24,24,24,24,24,24,24,24,5,0,0,25,25,25,25,25,25,25,25,25,0,0,5,24,24,24,24,24,24,
24,24,24,24,24,24,24,24,24,24,24,5,0,0,0,0,0,0,0,0,0,0,0,0,0,5,24,24,24,24,24,24,
24,24,24,24,24,24,24,24,24,24,24,5,0,0,0,0,0,0,0,0,0,0,0,0,0,5,24,24,24,24,24,24,
24,24,24,24,24,24,24,24,24,24,24,5,0,0,0,0,0,0,0,0,0,0,0,0,0,5,24,24,24,24,24,24,
24,24,24,24,24,24,24,24,24,24,24,5,25,25,25,25,25,25,25,25,25,25,25,25,25,5,24,24,24,24,24,24,
24,24,24,24,24,24,24,24,24,24,24,5,0,0,0,0,0,0,0,0,0,0,0,0,0,5,24,24,24,24,24,24,
24,24,24,24,24,24,24,24,24,24,24,5,0,0,0,0,0,0,0,0,0,0,0,0,0,5,24,24,24,24,24,24,
24,24,24,24,24,24,24,24,24,24,24,5,0,0,0,0,0,0,0,0,0,0,0,0,0,5,24,24,24,24,24,24,
24,24,24,24,24,24,24,24,24,24,24,5,0,0,0,0,0,0,0,0,0,0,0,0,0,5,24,24,24,24,24,24,
24,24,24,24,24,24,24,24,24,24,24,5,0,0,0,0,0,0,0,0,0,0,0,0,0,5,24,24,24,24,24,24,
24,24,24,24,24,24,24,24,24,24,24,5,0,0,0,0,0,0,0,0,0,0,0,0,0,5,24,24,24,24,24,24,
24,24,24,24,24,24,24,24,24,24,24,25,25,25,25,25,25,25,25,25,25,25,25,25,25,5,24,24,24,24,24,24,
24,24,24,24,24,24,24,24,24,24,24,24,24,24,24,24,24,24,24,24,24,24,24,24,24,5,24,24,24,24,24,24,
24,24,24,24,24,24,24,24,24,24,24,0,0,0,0,0,0,0,0,0,0,0,0,0,0,5,24,24,24,24,24,24,
24,24,24,24,24,24,24,24,24,24,24,0,0,0,0,0,0,0,0,0,0,0,0,0,0,5,24,24,24,24,24,24,
24,24,24,24,24,24,24,24,24,24,24,0,0,0,0,0,0,0,0,0,0,0,0,0,0,5,24,24,24,24,24,24,
24,24,24,24,24,24,24,24,24,24,24,0,0,0,0,0,0,0,0,0,0,0,0,0,0,5,24,24,24,24,24,24,
24,24,24,24,24,24,24,24,24,24,24,0,0,0,0,0,0,0,0,0,0,0,0,0,0,5,24,24,24,24,24,24,
24,24,24,24,24,24,24,24,24,24,24,0,0,0,0,0,0,0,0,23,0,0,0,0,0,5,24,24,24,24,24,24,
24,24,24,24,24,24,24,24,24,24,24,0,0,0,0,0,23,0,0,0,0,0,23,0,25,25,24,24,24,24,24,24,
24,24,24,24,24,24,24,24,24,24,24,0,0,0,0,0,0,0,0,0,0,0,0,0,0,0,24,24,24,24,24,24,
24,24,24,24,24,24,24,24,24,24,24,0,0,23,0,0,0,0,0,0,0,0,0,0,0,0,24,24,24,24,24,24,
24,24,24,24,24,24,24,24,24,24,24,0,0,0,0,0,0,0,0,0,0,0,0,0,0,0,24,24,24,24,24,24,
24,24,24,24,24,24,24,24,24,24,24,25,25,25,25,25,25,25,5,25,25,25,25,25,25,25,24,24,24,24,24,24,
24,24,24,24,24,24,24,24,24,24,24,0,0,0,0,0,0,0,5,0,0,0,0,0,0,0,24,24,24,24,24,24,
24,24,24,24,24,24,24,24,24,24,24,0,0,0,0,0,0,0,5,0,0,0,0,0,0,0,24,24,24,24,24,24,
24,24,24,24,24,24,24,24,24,24,24,0,0,0,0,0,0,0,5,0,0,0,0,0,0,0,24,24,24,24,24,24,
24,24,24,24,24,24,24,24,24,24,24,25,25,25,25,25,25,25,5,25,25,25,25,25,25,25,24,24,24,24,24,24,
24,24,24,24,24,24,24,24,24,24,24,0,0,0,0,0,0,0,5,0,0,0,0,0,0,0,24,24,24,24,24,24,
24,24,24,24,24,24,24,24,24,24,24,0,0,0,0,0,0,0,5,0,0,0,0,0,0,7,24,24,24,24,24,24,
24,24,24,24,24,24,24,24,24,24,24,25,25,25,25,25,25,25,25,25,25,25,25,25,25,5,24,24,24,24,24,24,
24,24,24,24,24,24,24,24,24,24,24,23,23,23,23,23,23,23,23,23,23,23,23,23,23,5,24,24,24,24,24,24,
24,24,24,24,24,24,24,24,24,24,24,0,0,0,0,0,0,0,0,0,0,0,0,0,0,5,24,24,24,24,24,24,
24,24,24,24,24,24,24,24,24,24,24,0,0,0,0,0,0,0,0,0,0,0,0,0,0,5,24,24,24,24,24,24,
24,24,24,24,24,24,24,24,24,24,24,0,0,0,0,0,0,0,0,0,0,0,0,0,0,5,24,24,24,24,24,24,
24,24,24,24,24,24,24,24,24,24,24,7,0,0,0,0,0,0,0,0,0,0,0,0,0,5,24,24,24,24,24,24,
23,24,24,24,24,24,24,24,24,24,24,5,44,44,44,7,7,44,44,7,7,44,44,7,7,44,24,24,24,24,24,24,
23,23,24,24,24,24,24,24,24,24,24,5,0,0,0,0,0,0,0,0,0,0,0,0,0,0,24,24,24,24,24,24,
23,23,23,24,24,24,24,24,24,24,24,5,1,1,1,1,1,1,1,1,1,1,1,1,1,1,24,24,24,24,24,24,
23,23,23,23,24,24,24,24,24,24,24,5,25,25,25,25,25,25,25,25,25,25,25,25,25,25,24,24,24,24,24,24,
23,23,23,23,23,24,24,24,24,24,24,5,0,0,0,0,0,0,0,0,0,0,0,0,0,0,24,24,24,24,24,24,
23,23,23,23,23,23,24,24,24,24,24,5,0,0,0,0,0,0,0,0,0,0,0,0,0,0,24,24,24,24,24,24,
23,23,23,23,23,23,23,24,24,24,24,5,0,0,0,0,0,0,0,0,0,0,0,0,0,0,24,24,24,24,24,24,
23,23,23,23,23,23,23,23,24,24,24,5,0,0,0,0,0,0,0,0,0,0,0,0,0,0,24,24,24,24,24,24,
23,23,23,23,23,23,23,23,23,24,24,44,44,0,0,0,44,44,44,44,44,0,0,0,44,5,24,24,24,24,24,24,
23,23,23,23,23,23,23,23,23,24,24,0,0,0,0,0,0,0,0,0,0,0,0,0,0,5,24,24,24,24,24,24,
23,23,23,23,23,23,23,23,23,24,24,0,0,0,0,0,0,0,0,0,0,0,0,0,0,5,24,24,24,24,24,24,
23,23,23,23,23,23,23,23,23,24,24,0,0,0,0,0,0,0,0,0,0,0,0,0,0,5,24,24,24,24,24,24,
23,23,23,23,23,23,23,23,23,24,24,1,1,1,1,1,1,1,1,1,1,1,1,1,1,5,24,24,24,24,24,24,
35,35,46,23,23,23,23,23,23,23,23,44,44,44,44,44,44,44,44,44,44,44,44,44,44,5,24,24,24,24,24,24,
35,35,48,23,0,0,0,0,0,0,0,0,0,0,0,0,0,0,0,0,0,0,0,0,0,5,24,24,24,24,24,24,
35,35,48,23,0,0,0,0,0,0,0,0,0,0,0,0,0,0,0,0,0,0,0,0,0,5,24,24,24,24,24,24,
44,44,44,44,44,44,44,44,44,44,44,44,44,44,44,44,44,44,44,44,44,44,44,44,44,44,44,24,24,24,24,24,
24,24,24,24,24,24,24,24,24,24,24,24,24,24,24,24,24,24,24,24,24,24,24,24,24,24,24,24,24,24,24,24,
24,24,24,24,24,24,24,24,24,24,24,24,24,24,24,24,24,24,24,24,24,24,24,24,24,24,24,24,24,24,24,24
</data>
 </layer>
 <objectgroup id="3" name="Objects">
  <object id="321" name="Enemy3" gid="145" x="832" y="2432" width="64" height="64">
   <properties>
    <property name="rotation" value="0"/>
    <property name="startXDirection" value="1"/>
    <property name="startYDirection" value="0"/>
   </properties>
  </object>
  <object id="322" name="ChilliEL" gid="205" x="704" y="3008" width="64" height="64"/>
  <object id="346" name="EnemyEagle1" gid="285" x="1600" y="3328" width="64" height="64"/>
  <object id="349" name="EnemyEagle1" gid="285" x="768" y="3328" width="64" height="64"/>
  <object id="360" name="EnemyDisk1" gid="435" x="1152" y="2816" width="64" height="64">
   <properties>
    <property name="maxTravel" value="448"/>
   </properties>
  </object>
  <object id="353" name="Player" gid="85" x="256" y="4416" width="64" height="64"/>
  <object id="355" name="EnemyElMalo" gid="486" x="1216" y="1024" width="64" height="64"/>
  <object id="356" name="Exit1" gid="29" x="1472" y="448" width="64" height="64"/>
  <object id="357" name="Exit1" gid="29" x="1472" y="384" width="64" height="64"/>
  <object id="358" name="Exit1" gid="29" x="1472" y="320" width="64" height="64"/>
  <object id="359" name="Enemy1" gid="105" x="1088" y="3904" width="64" height="64"/>
  <object id="362" name="EnemyDisk1" gid="435" x="1152" y="2688" width="64" height="64">
   <properties>
    <property name="maxTravel" value="320"/>
   </properties>
  </object>
  <object id="363" name="Enemy3" gid="145" x="1088" y="2368" width="64" height="64">
   <properties>
    <property name="rotation" value="90"/>
    <property name="startXDirection" value="0"/>
    <property name="startYDirection" value="1"/>
   </properties>
  </object>
  <object id="364" name="Enemy3" gid="145" x="1216" y="2368" width="64" height="64">
   <properties>
    <property name="rotation" value="180"/>
    <property name="startXDirection" value="-1"/>
    <property name="startYDirection" value="0"/>
   </properties>
  </object>
  <object id="365" name="Enemy3" gid="145" x="1344" y="2368" width="64" height="64">
   <properties>
    <property name="rotation" value="270"/>
    <property name="startXDirection" value="0"/>
    <property name="startYDirection" value="1"/>
   </properties>
  </object>
 </objectgroup>
</map>
